styles/2/Numix/32/places/default-user-desktop.svg

<?xml version="1.0" encoding="UTF-8" standalone="no"?>
<svg
   xmlns:dc="http://purl.org/dc/elements/1.1/"
   xmlns:cc="http://creativecommons.org/ns#"
   xmlns:rdf="http://www.w3.org/1999/02/22-rdf-syntax-ns#"
   xmlns:svg="http://www.w3.org/2000/svg"
   xmlns="http://www.w3.org/2000/svg"
   xmlns:sodipodi="http://sodipodi.sourceforge.net/DTD/sodipodi-0.dtd"
   xmlns:inkscape="http://www.inkscape.org/namespaces/inkscape"
   width="32"
   height="32"
   viewBox="0 0 32 32"
   id="svg2"
   version="1.1"
   inkscape:version="0.91 r"
   sodipodi:docname="default-user-desktop.svg">
  <metadata
     id="metadata20">
    <rdf:RDF>
      <cc:Work
         rdf:about="">
        <dc:format>image/svg+xml</dc:format>
        <dc:type
           rdf:resource="http://purl.org/dc/dcmitype/StillImage" />
      </cc:Work>
    </rdf:RDF>
  </metadata>
  <defs
     id="defs18" />
  <sodipodi:namedview
     pagecolor="#ffffff"
     bordercolor="#666666"
     borderopacity="1"
     objecttolerance="10"
     gridtolerance="10"
     guidetolerance="10"
     inkscape:pageopacity="0"
     inkscape:pageshadow="2"
     inkscape:window-width="1280"
     inkscape:window-height="998"
     id="namedview16"
     showgrid="false"
     inkscape:zoom="14.75"
     inkscape:cx="10.425539"
     inkscape:cy="17.164458"
     inkscape:window-x="0"
     inkscape:window-y="0"
     inkscape:window-maximized="1"
     inkscape:current-layer="svg2" />
  <path
     style="font-size:medium;font-style:normal;font-variant:normal;font-weight:normal;font-stretch:normal;text-indent:0;text-align:start;text-decoration:none;line-height:normal;letter-spacing:normal;word-spacing:normal;text-transform:none;direction:ltr;block-progression:tb;writing-mode:lr-tb;text-anchor:start;baseline-shift:baseline;color:#000000;fill:#e9b080;fill-opacity:1;fill-rule:nonzero;stroke:none;stroke-width:1;marker:none;visibility:visible;display:inline;overflow:visible;enable-background:accumulate;font-family:Sans;-inkscape-font-specification:Sans"
     d="m 4,3.9999997 c -0.4916,0 -1,0.4731187 -1,1 l 0,1 c -0.6666667,0 -0.8333333,0 -1.5,0 -0.9791617,0 -1.5,0.4940342 -1.5,1.5 L 0,26.5 C 0,27.531461 0.5230687,28 1.5,28 l 28.84375,0 C 31.21572,28 32,27.376781 32,26.5 l 0,-17 C 32,8.558677 31.574893,8 30.5,8 L 28,8 28,4.9999997 c 0,-0.5268813 -0.5084,-1 -1,-1 z"
     id="path3004"
     inkscape:connector-curvature="0"
     sodipodi:nodetypes="ssccssssscccsss" />
  <path
     style="font-size:medium;font-style:normal;font-variant:normal;font-weight:normal;font-stretch:normal;text-indent:0;text-align:start;text-decoration:none;line-height:normal;letter-spacing:normal;word-spacing:normal;text-transform:none;direction:ltr;block-progression:tb;writing-mode:lr-tb;text-anchor:start;baseline-shift:baseline;color:#000000;fill:#000000;fill-opacity:0.32156863;fill-rule:nonzero;stroke:none;stroke-width:1;marker:none;visibility:visible;display:inline;overflow:visible;enable-background:accumulate;font-family:Sans;-inkscape-font-specification:Sans"
     d="m 4,3.9999997 c -0.4916,0 -1,0.4731186 -1,1 l 0,1 c -0.6868035,0 -0.8835353,0 -1.5,0 -0.9791617,0 -1.5,0.4829856 -1.5,1.5 L 0,26.5 C 0,27.503839 0.5009716,28 1.5,28 l 28.84375,0 C 31.21572,28 32,27.376781 32,26.5 L 32,9.551776 C 32,8.537794 31.580916,8 30.5,8 L 28,8 28,4.9999997 c 0,-0.5268814 -0.5084,-1 -1,-1 z m 15,3 L 19,9 31,9 31,27 1,27 1,6.9999997 z"
     id="path3784"
     inkscape:connector-curvature="0"
     sodipodi:nodetypes="ssccssssscccsssccccccc" />
  <path
     style="opacity:1;fill:#000000;fill-opacity:0.32156863000000002"
     d="M 11 11 C 9.892 11 9 11.892 9 13 L 9 20 C 9 21.108 9.892 22 11 22 L 14 22 L 12 24 C 11 25 11 25 12 25 L 20 25 C 21 25 21 25 20 24 L 18 22 L 21 22 C 22.108 22 23 21.108 23 20 L 23 13 C 23 11.892 22.108 11 21 11 L 11 11 z M 11 13 L 21 13 L 21 20 L 11 20 L 11 13 z M 13.34375 14 C 13.062428 14.046875 12.49995 14.25 12.5 15 L 12.5 18 C 12.500067 19 13.5 19 13.5 19 L 16.5 19 C 17.5 19 17.5 18 17.5 18 L 17.5 16 L 15.5 14 L 13.5 14 C 13.5 14 13.437524 13.984375 13.34375 14 z M 13.5 15 L 15 15 L 15 16.5 L 16.5 16.5 L 16.5 18 L 13.5 18 L 13.5 15 z "
     id="path8" />
</svg>

<svg xmlns="http://www.w3.org/2000/svg" viewBox="0 0 32 32">
 <path d="m 4 4 c -0.492 0 -1 0.473 -1 1 l 0 1 c -0.667 0 -0.833 0 -1.5 0 -0.979 0 -1.5 0.494 -1.5 1.5 l 0 19 c 0 1.031 0.523 1.5 1.5 1.5 l 28.844 0 c 0.872 0 1.656 -0.623 1.656 -1.5 l 0 -17 c 0 -0.941 -0.425 -1.5 -1.5 -1.5 l -2.5 0 0 -3 c 0 -0.527 -0.508 -1 -1 -1 z" style="visibility:visible;fill:#e9b080;fill-opacity:1;stroke:none;display:inline;color:#000;fill-rule:nonzero"/>
 <path d="m 4 4 c -0.492 0 -1 0.473 -1 1 l 0 1 c -0.687 0 -0.884 0 -1.5 0 -0.979 0 -1.5 0.483 -1.5 1.5 l 0 19 c 0 1 0.501 1.5 1.5 1.5 l 28.844 0 c 0.872 0 1.656 -0.623 1.656 -1.5 l 0 -16.948 c 0 -1.014 -0.419 -1.552 -1.5 -1.552 l -2.5 0 0 -3 c 0 -0.527 -0.508 -1 -1 -1 z m 15 3 l 0 2 12 0 0 18 -30 0 0 -20 z" style="visibility:visible;fill:#000;fill-opacity:0.322;stroke:none;display:inline;color:#000;fill-rule:nonzero"/>
 <path d="m 11 11 c -1.108 0 -2 0.892 -2 2 l 0 7 c 0 1.108 0.892 2 2 2 l 3 0 l -2 2 c -1 1 -1 1 0 1 l 8 0 c 1 0 1 0 0 -1 l -2 -2 l 3 0 c 1.108 0 2 -0.892 2 -2 l 0 -7 c 0 -1.108 -0.892 -2 -2 -2 l -10 0 z m 0 2 l 10 0 l 0 7 l -10 0 l 0 -7 z m 2.344 1 c -0.281 0.047 -0.844 0.25 -0.844 1 l 0 3 c 0 1 1 1 1 1 l 3 0 c 1 0 1 -1 1 -1 l 0 -2 l -2 -2 l -2 0 c 0 0 -0.062 -0.016 -0.156 0 z m 0.156 1 l 1.5 0 l 0 1.5 l 1.5 0 l 0 1.5 l -3 0 l 0 -3 z" style="fill:#000;opacity:1;fill-opacity:0.322"/>
</svg>
